X: 16
T: Maids Of Mount Kisco, The
C: Paddy Killoran
Z: Possum
S: https://thesession.org/tunes/432#setting46814
R: reel
M: 4/4
L: 1/8
K: Ador
|:EA ~A2 BGAG|EA ~A2 BGAG|DG ~G2 AG ~G2|EG ~G2 EGDG|
EA ~A2 BGAG|EA ~A2 BG B/c/d|efge afge|dBGB AGFG:|
|:~A3 B dBAB|~G2 BG DGBG|~A3 B dGBd|1 efge dBGB:|2 efge d4||
|:ea ~a2 bgag|egdB GAB/c/d|ea ~a2 bgag|egde g2 fg|
~a3 f ~g3 e|dedB GAB/c/d|eA ~A2 efge|dBGB A4:|

